public/images/bag.svg

<svg width="32" height="32" viewBox="0 0 32 32" fill="none" xmlns="http://www.w3.org/2000/svg">
<path d="M4.66666 28C4.13332 28 3.66666 27.8 3.26666 27.4C2.86666 27 2.66666 26.5333 2.66666 26V10C2.66666 9.46667 2.86666 9 3.26666 8.6C3.66666 8.2 4.13332 8 4.66666 8H10.6667V4.66667C10.6667 4.13334 10.8667 3.66667 11.2667 3.26667C11.6667 2.86667 12.1333 2.66667 12.6667 2.66667H19.3333C19.8667 2.66667 20.3333 2.86667 20.7333 3.26667C21.1333 3.66667 21.3333 4.13334 21.3333 4.66667V8H27.3333C27.8667 8 28.3333 8.2 28.7333 8.6C29.1333 9 29.3333 9.46667 29.3333 10V26C29.3333 26.5333 29.1333 27 28.7333 27.4C28.3333 27.8 27.8667 28 27.3333 28H4.66666ZM4.66666 26H27.3333V10H4.66666V26ZM12.6667 8H19.3333V4.66667H12.6667V8ZM4.66666 26V10V26Z" fill="black"/>
</svg>

<svg xmlns="http://www.w3.org/2000/svg" width="32" height="32" fill="none" viewBox="0 0 32 32"><path fill="#000" d="M4.667 28c-.534 0-1-.2-1.4-.6-.4-.4-.6-.867-.6-1.4V10c0-.533.2-1 .6-1.4.4-.4.866-.6 1.4-.6h6V4.667c0-.534.2-1 .6-1.4.4-.4.866-.6 1.4-.6h6.666c.534 0 1 .2 1.4.6.4.4.6.866.6 1.4V8h6c.534 0 1 .2 1.4.6.4.4.6.867.6 1.4v16c0 .533-.2 1-.6 1.4-.4.4-.866.6-1.4.6H4.667zm0-2h22.666V10H4.667v16zm8-18h6.666V4.667h-6.666V8zm-8 18V10v16z"/></svg>
